X:1
T:Young Alan (6)
M:6/8
L:1/8
K:C
 C| DDDD-E G| A2 A D2 D| GGG E2 D| C3- C2 E| D2 D DEG| A2 A GAc| A2 AE-D C|\
 D3- D2||
